Papirus-GTK/16x16/apps/preferences-desktop-theme.svg

<svg height="16" viewBox="0 0 16 16" width="16" xmlns="http://www.w3.org/2000/svg"><path d="m .80078125 1c-.4432 0-.80078125.3464238-.80078125.7773438v.7773437 10.4453125h16v-10.4453125-.7773437c0-.4309201-.357581-.7773438-.800781-.7773438z" fill="#4ab3e4"/><path d="m .80000004 15c-.4432 0-.8-.346864-.8-.777784v-1.222216h15.99999996v1.222216c0 .43092-.3568.777784-.8.777784z" fill="#4d4d4d"/><path d="m5 5v4.5c0 .277.223.5.5.5h7c .277 0 .5-.223.5-.5v-4.5z" fill="#fff"/><path d="m5.5000005 4.0000003h6.9999995c.277 0 .499999.2230006.499999.5000003v.4999994h-7.9999985v-.4999994c0-.2769997.2229999-.5000003.5-.5000003z" fill="#4d4d4d"/><rect fill="#fff" height="1" rx=".125" width="1" x="1" y="2"/><rect fill="#fff" height="1" rx=".125" width="1" x="1" y="4"/><rect fill="#fff" height="1" rx=".125" width="1" x="1" y="6"/><rect fill="#fff" height="1" rx=".125" width="1" x="1" y="8"/></svg>

<?xml version="1.0" encoding="UTF-8" standalone="no"?>
<svg
   xmlns:dc="http://purl.org/dc/elements/1.1/"
   xmlns:cc="http://creativecommons.org/ns#"
   xmlns:rdf="http://www.w3.org/1999/02/22-rdf-syntax-ns#"
   xmlns:svg="http://www.w3.org/2000/svg"
   xmlns="http://www.w3.org/2000/svg"
   xmlns:sodipodi="http://sodipodi.sourceforge.net/DTD/sodipodi-0.dtd"
   xmlns:inkscape="http://www.inkscape.org/namespaces/inkscape"
   id="svg4468"
   height="16"
   width="16"
   version="1.1"
   viewBox="0 0 16 16"
   inkscape:version="0.91 r13725"
   sodipodi:docname="preferences-desktop-theme.svg">
  <sodipodi:namedview
     pagecolor="#ffffff"
     bordercolor="#666666"
     borderopacity="1"
     objecttolerance="10"
     gridtolerance="10"
     guidetolerance="10"
     inkscape:pageopacity="0"
     inkscape:pageshadow="2"
     inkscape:window-width="1600"
     inkscape:window-height="843"
     id="namedview14"
     showgrid="false"
     inkscape:zoom="39.352539"
     inkscape:cx="3.7944264"
     inkscape:cy="3.9341886"
     inkscape:window-x="0"
     inkscape:window-y="0"
     inkscape:window-maximized="1"
     inkscape:current-layer="svg4468" />
  <defs
     id="defs4470" />
  <metadata
     id="metadata4473">
    <rdf:RDF>
      <cc:Work
         rdf:about="">
        <dc:format>image/svg+xml</dc:format>
        <dc:type
           rdf:resource="http://purl.org/dc/dcmitype/StillImage" />
        <dc:title />
      </cc:Work>
    </rdf:RDF>
  </metadata>
  <path
     style="fill:#4ab3e4"
     d="M 0.80078125 1 C 0.35758125 1 1.4802974e-16 1.3464238 0 1.7773438 L 0 2.5546875 L 0 13 L 16 13 L 16 2.5546875 L 16 1.7773438 C 16 1.3464237 15.642419 1 15.199219 1 L 0.80078125 1 z "
     id="rect4203" />
  <path
     inkscape:connector-curvature="0"
     id="rect3328"
     d="m 0.80000004,15 c -0.4432,0 -0.8,-0.346864 -0.8,-0.777784 L 4e-8,13 16,13 16,14.222216 C 16,14.653136 15.6432,15 15.2,15 Z"
     style="fill:#4d4d4d" />
  <path
     id="rect4152"
     d="M 5,5 5,9.5 C 5,9.777 5.223,10 5.5,10 l 7,0 C 12.777,10 13,9.777 13,9.5 L 13,5 5,5 Z"
     style="opacity:1;fill:#ffffff;fill-opacity:1;stroke:none;stroke-width:4;stroke-linecap:round;stroke-linejoin:round;stroke-miterlimit:4;stroke-dasharray:none;stroke-opacity:1" />
  <path
     style="opacity:1;fill:#4d4d4d;fill-opacity:1;stroke:none;stroke-width:4;stroke-linecap:round;stroke-linejoin:round;stroke-miterlimit:4;stroke-dasharray:none;stroke-opacity:1"
     d="m 5.5000005,4.0000003 6.9999995,0 c 0.277,0 0.499999,0.2230006 0.499999,0.5000003 l 0,0.4999994 -7.9999985,0 0,-0.4999994 c 0,-0.2769997 0.2229999,-0.5000003 0.5,-0.5000003 z"
     id="rect4154" />
  <rect
     style="opacity:1;fill:#ffffff;fill-opacity:1;stroke-width:1;stroke-miterlimit:4;stroke-dasharray:none"
     id="rect4139"
     width="1"
     height="1"
     x="1"
     y="2"
     ry="0.125"
     rx="0.125" />
  <rect
     rx="0.125"
     ry="0.125"
     y="4"
     x="1"
     height="1"
     width="1"
     id="rect4141"
     style="opacity:1;fill:#ffffff;fill-opacity:1;stroke-width:1;stroke-miterlimit:4;stroke-dasharray:none" />
  <rect
     style="opacity:1;fill:#ffffff;fill-opacity:1;stroke-width:1;stroke-miterlimit:4;stroke-dasharray:none"
     id="rect4143"
     width="1"
     height="1"
     x="1"
     y="6"
     ry="0.125"
     rx="0.125" />
  <rect
     rx="0.125"
     ry="0.125"
     y="8"
     x="1"
     height="1"
     width="1"
     id="rect4145"
     style="opacity:1;fill:#ffffff;fill-opacity:1;stroke-width:1;stroke-miterlimit:4;stroke-dasharray:none" />
</svg>
